apps/scalable/acestreamplayer.svg

<svg xmlns="http://www.w3.org/2000/svg" style="isolation:isolate" width="256" height="256"><defs><filter id="a" width="270.648" height="254.338" x="-7.32" y="2.95" filterUnits="userSpaceOnUse"><feGaussianBlur xmlns="http://www.w3.org/2000/svg" in="SourceGraphic" stdDeviation="4.294"/><feOffset xmlns="http://www.w3.org/2000/svg" dy="4" result="pf_100_offsetBlur"/><feFlood xmlns="http://www.w3.org/2000/svg" flood-opacity=".4"/><feComposite xmlns="http://www.w3.org/2000/svg" in2="pf_100_offsetBlur" operator="in" result="pf_100_dropShadow"/><feBlend xmlns="http://www.w3.org/2000/svg" in="SourceGraphic" in2="pf_100_dropShadow"/></filter></defs><path fill="#31C6B7" d="M165.685 11.947c74.055 0 84.639 10.557 84.639 84.544v59.251c0 73.986-10.584 84.543-84.639 84.543h-75.37c-74.055 0-84.639-10.557-84.639-84.543V96.491c0-73.987 10.584-84.544 84.639-84.544h75.37z" filter="url(#a)"/><path fill="none" d="M0-2h256v256H0z"/><g opacity=".3"><linearGradient id="b" x2="0" y1=".5" y2="-.5" gradientTransform="matrix(228.891 0 0 212.028 13.278 19.986)" gradientUnits="userSpaceOnUse"><stop offset="50.422%" stop-color="#88f2e8"/><stop offset="81.401%" stop-color="#55eedf"/><stop offset="98.28%" stop-opacity="0" stop-color="#88f2e8"/></linearGradient><path fill="url(#b)" d="M29.088 20.108c-4.682 2.533-9.291 5.115-15.81 16.118l20.94.07v-16.31c-2.145.007-2.685.119-5.13.122zm197.225-.122h-4.531v16.31h20.387v-.921c-3.507-7.025-8.783-12.145-15.856-15.389zM13.831 44.451V60.76h20.387V44.451H13.831zm207.951 0V60.76h20.387V44.451h-20.387zM13.831 68.915v16.31h20.387v-16.31H13.831zm207.951 0v16.31h20.387v-16.31h-20.387zM13.831 93.38v16.31h20.387V93.38H13.831zm207.951 0v16.31h20.387V93.38h-20.387zM13.831 117.845v16.31h20.387v-16.31H13.831zm207.951 0v16.31h20.387v-16.31h-20.387zM13.831 142.31v16.31h20.387v-16.31H13.831zm207.951 0v16.31h20.387v-16.31h-20.387zM13.831 166.775v16.31h20.387v-16.31H13.831zm207.951 0v16.31h20.387v-16.31h-20.387zM13.831 191.24v16.309h20.387V191.24H13.831zm207.951 0v16.309h20.387V191.24h-20.387zM13.831 215.704v1.234c2.586 5.641 7.569 10.676 14.919 15.076h5.468v-16.31H13.831zm207.951 0v16.31H227c5.991-2.765 11.058-7.802 15.169-15.139v-1.171h-20.387z"/></g><linearGradient id="c" x2="1" y1=".5" y2=".5" gradientTransform="matrix(230.1 0 0 228.338 20.225 11.947)" gradientUnits="userSpaceOnUse"><stop offset="5.584%" stop-color="#e5e5e5"/><stop offset="51.012%" stop-color="#f9f9f9"/><stop offset="96.439%" stop-color="#e5e5e5"/></linearGradient><path fill="url(#c)" d="M133 11.947c32.155 54.074 71.273 102.015 117.324 143.795 0 73.986-10.584 84.543-84.639 84.543H160C91.311 197.97 44.73 126.709 20.225 26.474c11.903-11.888 33.062-14.527 70.09-14.527H133z"/><g opacity=".4"><linearGradient id="d" x2="0" y1=".5" y2="1.5" gradientTransform="matrix(66.875 0 0 72.562 105.646 85.438)" gradientUnits="userSpaceOnUse"><stop offset="0%" stop-opacity="0"/><stop offset="49.846%"/><stop offset="98.75%" stop-opacity="0"/></linearGradient><path fill="url(#d)" d="M105.646 85.438V158s36.802-14.874 66.875-36.304c0-.006-.004-.012-.008-.019-.003-.008-.008-.016-.013-.024-.006-.008-.012-.016-.016-.024a.055.055 0 0 1-.007-.023c-31.721-22.113-66.831-36.168-66.831-36.168z"/></g><path d="M105.646 85.438V158s36.802-14.874 66.875-36.304c0-.006-.004-.012-.008-.019-.003-.008-.008-.016-.013-.024-.006-.008-.012-.016-.016-.024a.055.055 0 0 1-.007-.023c-31.721-22.113-66.831-36.168-66.831-36.168z" opacity=".1"/><path fill="#31C6B7" d="M105.646 84.833v72.562s36.802-14.874 66.875-36.304c0-.006-.004-.011-.008-.02-.003-.009-.008-.015-.013-.024-.006-.008-.012-.015-.016-.023a.06.06 0 0 1-.007-.023c-31.721-22.112-66.831-36.168-66.831-36.168z"/><path fill="#FFF" d="M105.646 84.833v.605s34.872 13.956 66.483 35.929c.13-.093.262-.183.392-.276 0-.006-.004-.011-.008-.02-.003-.009-.008-.016-.013-.024-.006-.009-.012-.015-.016-.023a.06.06 0 0 1-.007-.023c-31.721-22.112-66.831-36.168-66.831-36.168z"/><g opacity=".4"><linearGradient id="e" x1=".517" x2=".517" y2="1"><stop offset="0%" stop-color="#fff"/><stop offset="12.5%" stop-opacity=".098" stop-color="#fff"/><stop offset="92.5%" stop-opacity=".098"/><stop offset="100%" stop-opacity=".498"/></linearGradient><path fill="none" stroke="url(#e)" stroke-linecap="round" stroke-linejoin="round" stroke-width="4.077" d="M165.685 11.947c74.055 0 84.639 10.557 84.639 84.544v59.251c0 73.986-10.584 84.543-84.639 84.543h-75.37c-74.055 0-84.639-10.557-84.639-84.543V96.491c0-73.987 10.584-84.544 84.639-84.544h75.37z" vector-effect="non-scaling-stroke"/></g></svg>

<svg xmlns="http://www.w3.org/2000/svg" style="isolation:isolate" width="256" height="256" viewBox="0 0 256 256">
 <defs>
  <filter id="IEYUGfXy1WPoEOYPtsXmwugbsxcczhx4" width="270.648" height="254.338" x="-7.32" y="2.95" filterUnits="userSpaceOnUse">
   <feGaussianBlur xmlns="http://www.w3.org/2000/svg" in="SourceGraphic" stdDeviation="4.294"/>
   <feOffset xmlns="http://www.w3.org/2000/svg" dx="0" dy="4" result="pf_100_offsetBlur"/>
   <feFlood xmlns="http://www.w3.org/2000/svg" flood-opacity=".4"/>
   <feComposite xmlns="http://www.w3.org/2000/svg" in2="pf_100_offsetBlur" operator="in" result="pf_100_dropShadow"/>
   <feBlend xmlns="http://www.w3.org/2000/svg" in="SourceGraphic" in2="pf_100_dropShadow" mode="normal"/>
  </filter>
 </defs>
 <g filter="url(#IEYUGfXy1WPoEOYPtsXmwugbsxcczhx4)">
  <path fill="#31C6B7" d="M 165.685 11.947 C 239.74 11.947 250.324 22.504 250.324 96.491 L 250.324 155.742 C 250.324 229.728 239.74 240.285 165.685 240.285 L 90.315 240.285 C 16.26 240.285 5.676 229.728 5.676 155.742 L 5.676 96.491 C 5.676 22.504 16.26 11.947 90.315 11.947 L 165.685 11.947 Z"/>
 </g>
 <rect fill="none" width="256" height="256" x="0" y="-2" transform="matrix(1,0,0,1,0,0)"/>
 <g opacity=".3">
  <linearGradient id="_lgradient_261" x1="0" x2="0" y1=".5" y2="-.5" gradientTransform="matrix(228.891,0,0,212.028,13.278,19.986)" gradientUnits="userSpaceOnUse">
   <stop offset="50.422%" style="stop-color:rgb(136,242,232)"/>
   <stop offset="81.401%" style="stop-color:rgb(85,238,223)"/>
   <stop offset="98.28%" stop-opacity="0" style="stop-color:rgb(136,242,232)"/>
  </linearGradient>
  <path fill="url(#_lgradient_261)" d="M 29.088 20.108 C 24.406 22.641 19.797 25.223 13.278 36.226 L 34.218 36.296 L 34.218 19.986 C 32.073 19.993 31.533 20.105 29.088 20.108 Z M 226.313 19.986 L 221.782 19.986 L 221.782 36.296 L 242.169 36.296 L 242.169 35.375 C 238.662 28.35 233.386 23.23 226.313 19.986 Z M 13.831 44.451 L 13.831 60.76 L 34.218 60.76 L 34.218 44.451 L 13.831 44.451 Z M 221.782 44.451 L 221.782 60.76 L 242.169 60.76 L 242.169 44.451 L 221.782 44.451 Z M 13.831 68.915 L 13.831 85.225 L 34.218 85.225 L 34.218 68.915 L 13.831 68.915 Z M 221.782 68.915 L 221.782 85.225 L 242.169 85.225 L 242.169 68.915 L 221.782 68.915 Z M 13.831 93.38 L 13.831 109.69 L 34.218 109.69 L 34.218 93.38 L 13.831 93.38 Z M 221.782 93.38 L 221.782 109.69 L 242.169 109.69 L 242.169 93.38 L 221.782 93.38 Z M 13.831 117.845 L 13.831 134.155 L 34.218 134.155 L 34.218 117.845 L 13.831 117.845 Z M 221.782 117.845 L 221.782 134.155 L 242.169 134.155 L 242.169 117.845 L 221.782 117.845 Z M 13.831 142.31 L 13.831 158.62 L 34.218 158.62 L 34.218 142.31 L 13.831 142.31 Z M 221.782 142.31 L 221.782 158.62 L 242.169 158.62 L 242.169 142.31 L 221.782 142.31 Z M 13.831 166.775 L 13.831 183.085 L 34.218 183.085 L 34.218 166.775 L 13.831 166.775 Z M 221.782 166.775 L 221.782 183.085 L 242.169 183.085 L 242.169 166.775 L 221.782 166.775 Z M 13.831 191.24 L 13.831 207.549 L 34.218 207.549 L 34.218 191.24 L 13.831 191.24 Z M 221.782 191.24 L 221.782 207.549 L 242.169 207.549 L 242.169 191.24 L 221.782 191.24 Z M 13.831 215.704 L 13.831 216.938 C 16.417 222.579 21.4 227.614 28.75 232.014 L 34.218 232.014 L 34.218 215.704 L 13.831 215.704 Z M 221.782 215.704 L 221.782 232.014 L 227 232.014 C 232.991 229.249 238.058 224.212 242.169 216.875 L 242.169 215.704 L 221.782 215.704 Z"/>
 </g>
 <linearGradient id="_lgradient_262" x1="0" x2="1" y1=".5" y2=".5" gradientTransform="matrix(230.1,0,0,228.338,20.225,11.947)" gradientUnits="userSpaceOnUse">
  <stop offset="5.584%" style="stop-color:rgb(229,229,229)"/>
  <stop offset="51.012%" style="stop-color:rgb(249,249,249)"/>
  <stop offset="96.439%" style="stop-color:rgb(229,229,229)"/>
 </linearGradient>
 <path fill="url(#_lgradient_262)" d="M 133 11.947 C 165.155 66.021 204.273 113.962 250.324 155.742 C 250.324 229.728 239.74 240.285 165.685 240.285 L 160 240.285 C 91.311 197.97 44.73 126.709 20.225 26.474 C 32.128 14.586 53.287 11.947 90.315 11.947 L 133 11.947 Z"/>
 <g opacity=".4">
  <linearGradient id="_lgradient_263" x1="0" x2="0" y1=".5" y2="1.5" gradientTransform="matrix(66.875,0,0,72.562,105.646,85.438)" gradientUnits="userSpaceOnUse">
   <stop offset="0%" stop-opacity="0" style="stop-color:rgb(0,0,0)"/>
   <stop offset="49.846%" style="stop-color:rgb(0,0,0)"/>
   <stop offset="98.75%" stop-opacity="0" style="stop-color:rgb(0,0,0)"/>
  </linearGradient>
  <path fill="url(#_lgradient_263)" d="M 105.646 85.438 L 105.646 158 C 105.646 158 142.448 143.126 172.521 121.696 C 172.521 121.69 172.517 121.684 172.513 121.677 C 172.51 121.669 172.505 121.661 172.5 121.653 C 172.494 121.645 172.488 121.637 172.484 121.629 C 172.48 121.621 172.477 121.613 172.477 121.606 C 140.756 99.493 105.646 85.438 105.646 85.438 L 105.646 85.438 Z"/>
 </g>
 <g opacity=".1">
  <path d="M 105.646 85.438 L 105.646 158 C 105.646 158 142.448 143.126 172.521 121.696 C 172.521 121.69 172.517 121.684 172.513 121.677 C 172.51 121.669 172.505 121.661 172.5 121.653 C 172.494 121.645 172.488 121.637 172.484 121.629 C 172.48 121.621 172.477 121.613 172.477 121.606 C 140.756 99.493 105.646 85.438 105.646 85.438 L 105.646 85.438 Z"/>
 </g>
 <path fill="#31C6B7" d="M 105.646 84.833 L 105.646 157.395 C 105.646 157.395 142.448 142.521 172.521 121.091 C 172.521 121.085 172.517 121.08 172.513 121.071 C 172.51 121.062 172.505 121.056 172.5 121.047 C 172.494 121.039 172.488 121.032 172.484 121.024 C 172.48 121.015 172.477 121.008 172.477 121.001 C 140.756 98.889 105.646 84.833 105.646 84.833 L 105.646 84.833 Z"/>
 <path fill="#FFFFFF" d="M 105.646 84.833 L 105.646 85.438 C 105.646 85.438 140.518 99.394 172.129 121.367 C 172.259 121.274 172.391 121.184 172.521 121.091 C 172.521 121.085 172.517 121.08 172.513 121.071 C 172.51 121.062 172.505 121.055 172.5 121.047 C 172.494 121.038 172.488 121.032 172.484 121.024 C 172.48 121.015 172.477 121.008 172.477 121.001 C 140.756 98.889 105.646 84.833 105.646 84.833 L 105.646 84.833 Z"/>
 <g opacity=".4">
  <linearGradient id="_lgradient_264" x1=".517" x2=".517" y1="0" y2="1">
   <stop offset="0%" style="stop-color:rgb(255,255,255)"/>
   <stop offset="12.5%" stop-opacity=".098" style="stop-color:rgb(255,255,255)"/>
   <stop offset="92.5%" stop-opacity=".098" style="stop-color:rgb(0,0,0)"/>
   <stop offset="100%" stop-opacity=".498" style="stop-color:rgb(0,0,0)"/>
  </linearGradient>
  <path fill="none" stroke="url(#_lgradient_264)" stroke-linecap="round" stroke-linejoin="round" stroke-width="4.077" d="M 165.685 11.947 C 239.74 11.947 250.324 22.504 250.324 96.491 L 250.324 155.742 C 250.324 229.728 239.74 240.285 165.685 240.285 L 90.315 240.285 C 16.26 240.285 5.676 229.728 5.676 155.742 L 5.676 96.491 C 5.676 22.504 16.26 11.947 90.315 11.947 L 165.685 11.947 Z" vector-effect="non-scaling-stroke"/>
 </g>
</svg>
